img/cam.svg

<svg width="23" height="17" viewBox="0 0 23 17" fill="none" xmlns="http://www.w3.org/2000/svg">
<path d="M22.7583 7.60935L9.76341 0.284743C8.76108 -0.281127 7.38913 0.0239435 6.72838 0.955845L4.21094 4.50256C3.96387 4.85106 3.83333 5.25955 3.83333 5.68464C3.83333 6.419 4.23389 7.10303 4.8782 7.4695L7.61886 9.0293L7.12378 9.68039C6.85564 10.0326 6.70826 10.4692 6.70826 10.9096C6.70826 11.3624 6.87653 11.7884 7.14759 12.1405L6.41815 13.2222H2.87497V11.8009C2.87497 11.5396 2.66065 11.3333 2.3958 11.3333H0.479177C0.21432 11.3333 0 11.5396 0 11.8009V16.5274C0 16.7886 0.21432 17 0.479177 17H2.39584C2.6607 17 2.87502 16.7886 2.87502 16.5274V16.0556H6.4182C7.38168 16.0556 8.27588 15.5839 8.81027 14.7933L9.59568 13.6312C9.74693 13.6635 9.89948 13.6929 10.0554 13.6929C10.8181 13.6929 11.5359 13.2922 11.9281 12.647L12.4546 11.7814L16.5325 14.1023C16.606 14.1444 16.6888 14.1656 16.7721 14.1656C16.8184 14.1656 16.8648 14.1591 16.9101 14.1457C17.0365 14.1079 17.1418 14.0206 17.2007 13.9043L17.5555 13.2036C17.6137 13.2079 17.6697 13.2203 17.729 13.2203C19.5783 13.2203 21.0832 11.7359 21.0832 9.91175C21.0832 9.71142 21.0532 9.50499 21.0086 9.29395L22.735 8.44258C22.8931 8.36457 22.9947 8.20719 22.9998 8.03272C23.0045 7.8586 22.9118 7.69568 22.7583 7.60935ZM1.91666 16.0556H0.95831V12.2778H1.91662V16.0556H1.91666ZM8.01287 14.2714C7.65677 14.798 7.06062 15.1125 6.41815 15.1125H2.87497V14.1681H6.41815C6.74011 14.1681 7.03816 14.0108 7.21551 13.7475L7.87905 12.7663L8.70192 13.2527L8.01287 14.2714ZM11.1064 12.1648C10.7714 12.714 9.9829 12.9095 9.42511 12.5789L8.20989 11.8604C7.87487 11.6626 7.66661 11.3001 7.66661 10.9151C7.66661 10.678 7.74617 10.4433 7.89028 10.2533L8.45467 9.51172L11.6243 11.314L11.1064 12.1648ZM16.5709 13.0364L5.35688 6.65997C5.00829 6.46168 4.79164 6.09184 4.79164 5.69477C4.79164 5.46465 4.8623 5.24374 4.99612 5.05515L6.19916 3.36179L18.0569 10.1035L16.5709 13.0364ZM18.0414 12.248L19.0444 10.2685L20.1088 9.74405C20.1141 9.802 20.1248 9.86199 20.1248 9.91804C20.1248 11.1145 19.2137 12.0953 18.0414 12.248ZM18.7036 9.38063L6.75098 2.58506L7.51361 1.51167C7.76584 1.15657 8.17854 0.944423 8.61841 0.944423C8.85285 0.944423 9.08447 1.00485 9.28801 1.11965L21.5057 8.00009L18.7036 9.38063Z" fill="#9FC460"/>
<path d="M15.8124 11.3334C16.077 11.3334 16.2915 11.122 16.2915 10.8612C16.2915 10.6003 16.077 10.3889 15.8124 10.3889C15.5477 10.3889 15.3332 10.6003 15.3332 10.8612C15.3332 11.122 15.5477 11.3334 15.8124 11.3334Z" fill="#9FC460"/>
</svg>

<svg width="23" height="17" fill="none" xmlns="http://www.w3.org/2000/svg"><path d="M22.758 7.61L9.763.284C8.761-.281 7.39.024 6.728.955L4.211 4.504a2.033 2.033 0 00-.378 1.182c0 .734.4 1.418 1.045 1.785l2.74 1.56-.494.65a2.041 2.041 0 00-.416 1.23c0 .452.169.878.44 1.23l-.73 1.082H2.875v-1.421a.471.471 0 00-.48-.468H.48a.471.471 0 00-.479.468v4.726c0 .262.214.473.48.473h1.916a.475.475 0 00.479-.473v-.471h3.543a2.88 2.88 0 002.392-1.263l.786-1.162c.15.033.303.062.46.062a2.2 2.2 0 001.872-1.046l.527-.866 4.077 2.321a.482.482 0 00.669-.198l.354-.7c.059.004.115.016.174.016 1.85 0 3.354-1.484 3.354-3.308 0-.2-.03-.407-.074-.618l1.726-.851a.472.472 0 00.023-.833zM1.917 16.055H.958v-3.778h.959v3.778zm6.096-1.785a1.92 1.92 0 01-1.595.841H2.875v-.944h3.543a.96.96 0 00.798-.42l.663-.982.823.487-.69 1.018zm3.093-2.106c-.335.549-1.123.745-1.68.414L8.21 11.86a1.105 1.105 0 01-.543-.945c0-.237.08-.472.223-.662l.565-.741 3.17 1.802-.519.85zm5.465.871L5.357 6.66a1.115 1.115 0 01-.565-.965c0-.23.07-.451.204-.64L6.2 3.362l11.858 6.742-1.486 2.932zm1.47-.788l1.003-1.98 1.065-.524c.005.058.016.118.016.174 0 1.197-.911 2.177-2.084 2.33zm.663-2.867L6.75 2.585l.763-1.073a1.366 1.366 0 011.774-.392L21.506 8l-2.802 1.38z" fill="#9FC460"/><path d="M15.812 11.333c.265 0 .48-.211.48-.472a.476.476 0 00-.48-.472.476.476 0 00-.479.472c0 .261.215.472.48.472z" fill="#9FC460"/></svg>
